packages/Snapp/src/NightIcon/index.svg

<?xml version="1.0" encoding="UTF-8"?>
<svg width="24px" height="24px" viewBox="0 0 24 24" version="1.1" xmlns="http://www.w3.org/2000/svg" xmlns:xlink="http://www.w3.org/1999/xlink">
    <title>Icons/24/Night</title>
    <g id="Icons/24/Night" stroke="none" stroke-width="1" fill="none" fill-rule="evenodd">
        <rect id="Container" fill-opacity="0" fill="#D8D8D8" fill-rule="nonzero" x="0" y="0" width="24" height="24"></rect>
        <path d="M9.09888889,4.74766667 C6.14888889,5.93655556 4.12333333,8.87433333 4.22666667,12.2032222 C4.35333333,16.3021111 7.66222222,19.6121111 11.7611111,19.7376667 C15.1044444,19.8832222 18.0266667,17.8165556 19.2166667,14.8643333 C16.41,15.7832222 13.2677778,15.0954444 11.0677778,12.8965556 C8.86666667,10.6965556 8.17777778,7.551 9.09888889,4.74766667 M12.0022222,21.9643333 C11.9,21.9643333 11.7966667,21.9621111 11.6933333,21.9598889 C6.42222222,21.7976667 2.16777778,17.5421111 2.00444444,12.271 C1.84333333,6.99988889 5.83,2.49211111 11.08,2.00655556 C11.5133333,1.95655556 11.9355556,2.18544444 12.15,2.56766667 C12.3644444,2.94988889 12.3355556,3.42211111 12.0755556,3.77433333 C10.3544444,6.10211111 10.5911111,9.27766667 12.64,11.3254444 C14.6844444,13.371 17.8611111,13.6098889 20.19,11.8887778 C20.5433333,11.6298889 21.0155556,11.5998889 21.3966667,11.8143333 C21.7777778,12.0298889 21.9977778,12.4487778 21.9577778,12.8843333 C21.4833333,18.0321111 17.1388889,21.9643333 12.0022222,21.9643333" id="Fill-1" fill="#404040"></path>
    </g>
</svg>

<svg viewBox="0 0 24 24" xmlns="http://www.w3.org/2000/svg" fill="currentColor" focusable="false">
  <path d="M9.099 4.748c-2.95 1.189-4.976 4.126-4.872 7.455.126 4.1 3.435 7.41 7.534 7.535 3.343.145 6.266-1.921 7.456-4.874a7.977 7.977 0 01-8.15-1.967c-2.2-2.2-2.89-5.346-1.968-8.15m2.903 17.217c-.102 0-.205-.002-.309-.004-5.27-.162-9.525-4.418-9.689-9.689C1.844 7 5.83 2.492 11.08 2.007c.433-.05.856.178 1.07.56.214.383.186.855-.074 1.207a5.765 5.765 0 00.564 7.551 5.766 5.766 0 007.55.564 1.113 1.113 0 011.768.996c-.475 5.147-4.82 9.08-9.956 9.08" fill="none"/>
</svg>
